icons/devices.svg

<svg width="24" height="24" viewBox="0 0 24 24" fill="none" xmlns="http://www.w3.org/2000/svg">
<path fill-rule="evenodd" clip-rule="evenodd" d="M2 3C2 2.44772 2.44772 2 3 2H17C17.5523 2 18 2.44772 18 3V8H21C21.5523 8 22 8.44772 22 9V21C22 21.5523 21.5523 22 21 22H13C12.4477 22 12 21.5523 12 21V20H3C2.44772 20 2 19.5523 2 19V3ZM14 20H20V10H14V20ZM12 18H4V4H16V8H13C12.4477 8 12 8.44772 12 9V18Z" fill="black"/>
</svg>

<svg
  width="24"
  height="24"
  viewBox="0 0 24 24"
  xmlns="http://www.w3.org/2000/svg"
>
  <path
    fill-rule="evenodd"
    clip-rule="evenodd"
    d="M2 3a1 1 0 0 1 1-1h14a1 1 0 0 1 1 1v5h3a1 1 0 0 1 1 1v12a1 1 0 0 1-1 1h-8a1 1 0 0 1-1-1v-1H3a1 1 0 0 1-1-1V3zm12 17h6V10h-6v10zm-2-2H4V4h12v4h-3a1 1 0 0 0-1 1v9z"
  />
</svg>
